public/library/aquanow-text-light.svg

<svg width="1024" height="234" viewBox="0 0 1024 234" fill="none" xmlns="http://www.w3.org/2000/svg">
<path d="M232.792 233.395C180.776 233.395 134.843 199.703 119.573 150.301L73.2012 0.605469H160.717L232.792 233.395Z" fill="#101E38"/>
<path d="M351.26 154.453L345.519 138.988H312.926L307.307 154.453H288.445L320.671 72.4102H337.432L370.611 154.453H351.26ZM329.223 94.1059L318.448 123.522H340.022L329.223 94.1059Z" fill="#101E38"/>
<path d="M479.482 163.352H474.205C466.02 163.352 458.006 160.053 452.24 152.846L451.703 152.235C446.083 154.923 439.511 156.34 432.597 156.34C407.505 156.34 388.766 137.82 388.766 113.437C388.766 89.0537 407.53 70.6562 432.597 70.6562C457.664 70.6562 476.184 89.0537 476.184 113.437C476.184 125.971 471.273 136.867 463.186 144.612L479.482 163.352ZM432.572 139.579C435.138 139.579 437.63 139.213 439.853 138.504L423.557 119.643H441.71L451.678 131.248C455.783 126.679 458.128 120.473 458.128 113.437C458.128 98.5578 447.232 87.4167 432.572 87.4167C417.913 87.4167 406.797 98.6555 406.797 113.437C406.797 128.218 417.938 139.579 432.572 139.579Z" fill="#101E38"/>
<path d="M539.557 156.31C520.109 156.31 505.572 142.824 505.572 123.62V72.4102H523.383V122.814C523.383 133.002 530.053 139.574 539.557 139.574C549.061 139.574 555.609 133.002 555.609 122.814V72.4102H573.42V123.62C573.42 142.848 558.883 156.31 539.557 156.31Z" fill="#101E38"/>
<path d="M657.638 154.453L651.897 138.988H619.304L613.685 154.453H594.799L627.049 72.4102H643.81L676.964 154.453H657.638ZM635.6 94.1059L624.801 123.522H646.375L635.6 94.1059Z" fill="#101E38"/>
<circle cx="43.7607" cy="189.632" r="43.7607" fill="#101E38"/>
<path d="M754.17 72.4102H771.639V154.453H756.76L719.599 103.244V154.453H702.252V72.4102H718.206L754.17 122.447V72.4102Z" fill="#101E38"/>
<path d="M843.691 156.316C818.623 156.316 799.859 137.797 799.859 113.413C799.859 89.0302 818.623 70.6328 843.691 70.6328C868.758 70.6328 887.302 89.0302 887.302 113.413C887.302 137.797 868.66 156.316 843.691 156.316ZM843.691 139.556C858.35 139.556 869.247 128.317 869.247 113.413C869.247 98.5099 858.35 87.3933 843.691 87.3933C829.031 87.3933 817.915 98.632 817.915 113.413C817.915 128.195 829.056 139.556 843.691 139.556Z" fill="#101E38"/>
<path d="M1005.48 72.4102H1024L998.688 154.453H982.856L964.581 108.521L946.77 154.453H930.938L905.162 72.4102H923.902L940.076 127.016L961.649 73.3386H967.635L989.648 126.894L1005.48 72.4102Z" fill="#101E38"/>
</svg>

<svg xmlns="http://www.w3.org/2000/svg" width="1024" height="234" fill="none" viewBox="0 0 1024 234"><path fill="#101e38" d="M232.792 233.395c-52.016 0-97.949-33.692-113.219-83.094L73.201.605h87.516zM351.26 154.453l-5.741-15.465h-32.593l-5.619 15.465h-18.862l32.226-82.043h16.761l33.179 82.043zm-22.037-60.347-10.775 29.416h21.574zM479.482 163.352h-5.277c-8.185 0-16.199-3.299-21.965-10.506l-.537-.611c-5.62 2.688-12.192 4.105-19.106 4.105-25.092 0-43.831-18.52-43.831-42.903s18.764-42.78 43.831-42.78 43.587 18.397 43.587 42.78c0 12.534-4.911 23.43-12.998 31.175zm-46.91-23.773c2.566 0 5.058-.366 7.281-1.075l-16.296-18.861h18.153l9.968 11.605c4.105-4.569 6.45-10.775 6.45-17.811 0-14.88-10.896-26.02-25.556-26.02s-25.775 11.239-25.775 26.02 11.141 26.142 25.775 26.142M539.557 156.31c-19.448 0-33.985-13.486-33.985-32.69V72.41h17.811v50.404c0 10.188 6.67 16.76 16.174 16.76s16.052-6.572 16.052-16.76V72.41h17.811v51.21c0 19.228-14.537 32.69-33.863 32.69M657.638 154.453l-5.741-15.465h-32.593l-5.619 15.465h-18.886l32.25-82.043h16.761l33.154 82.043zM635.6 94.106l-10.799 29.416h21.574z"/><circle cx="43.761" cy="189.632" r="43.761" fill="#101e38"/><path fill="#101e38" d="M754.17 72.41h17.469v82.043H756.76l-37.161-51.209v51.209h-17.347V72.41h15.954l35.964 50.037zM843.691 156.316c-25.068 0-43.832-18.519-43.832-42.903 0-24.383 18.764-42.78 43.832-42.78 25.067 0 43.611 18.397 43.611 42.78s-18.642 42.903-43.611 42.903m0-16.76c14.659 0 25.556-11.239 25.556-26.143s-10.897-26.02-25.556-26.02-25.776 11.239-25.776 26.02c0 14.782 11.141 26.143 25.776 26.143M1005.48 72.41H1024l-25.312 82.043h-15.832l-18.275-45.932-17.811 45.932h-15.832L905.162 72.41h18.74l16.174 54.606 21.573-53.677h5.986l22.013 53.555z"/></svg>
